X:0766
T:The Lakes of Kellarnie.
M:6/8
L:1/8
Q:3/8=104
I: S :| || S
Z:Jack Campin * www.campin.me.uk * 2009
K:D
(d/e/)| f.d.d       .e.d.d      |afb   afd'    | bee         Te>fg/a/    | bge        Tede  |
       .f.d.d       Tedd        |afd' Hd'2c'/b/| a(g/f/e/d/)  afd        | BTAd       Hd2  :|
 f/g/ |(a/b/)a/f/d' (a/b/)a/f/d'|c'ee Te>fg/e/ |(a/b/)a/f/d' (a/b/)a/f/d'|TBAd        Td2
(f/g/)|(af).d       (af).d      |abb  Tb>c'd'  |(af).d       (af).d      | gee        Te(fg)|
       (af).d       (af).d      |abc' Hd'2c'/b/|(af).d       (af).d      |(ee/f/)g/e/ Hb2
 a/g/ | f.d.d       .e.d.d      |afb   afd'    | bee         Te>fg/a/    | bge        Tede  |
       .f.d.d       Tedd        |afd' Hd'2c'/b/| a(g/f/e/d/)  afd        | BTAd        d2  :|
<end>
<start>
